app/dist/common/images/office-depot.svg

<svg height="18" viewBox="0 0 18 18" width="18" xmlns="http://www.w3.org/2000/svg"><path d="m0 0h18v18h-18z" fill="#c00"/><g fill="#f0f3fa"><path d="m5.5 12c1.93 0 3.5-1.34 3.5-3s-1.57-3-3.5-3-3.5 1.34-3.5 3 1.57 3 3.5 3zm0-1.4c.83 0 1.5-.72 1.5-1.6s-.67-1.6-1.5-1.6-1.5.72-1.5 1.6.67 1.6 1.5 1.6z" fill-rule="evenodd"/><path d="m9 6h4.01c1-.03 2.99.5 2.99 3 0 2.72-2.5 3-3 3h-4v-1.21l1-.25v-3.11l-1-.43zm3 1.5v3h1.01c.34 0 .99-.2.99-1.5 0-1.53-.99-1.51-1.42-1.5z"/></g></svg>

<!-- by TradingView --><svg width="18" height="18" viewBox="0 0 18 18" xmlns="http://www.w3.org/2000/svg"><path fill="#C00" d="M0 0h18v18H0z"/><path fill-rule="evenodd" d="M5.5 12C7.43 12 9 10.66 9 9S7.43 6 5.5 6 2 7.34 2 9s1.57 3 3.5 3Zm0-1.4C6.33 10.6 7 9.88 7 9c0-.88-.67-1.6-1.5-1.6S4 8.12 4 9c0 .88.67 1.6 1.5 1.6Z" fill="#F0F3FA"/><path d="M9 6h4.01c1-.03 2.99.5 2.99 3 0 2.72-2.5 3-3 3H9v-1.21l1-.25V7.43L9 7V6Zm3 1.5v3h1.01c.34 0 .99-.2.99-1.5 0-1.53-.99-1.51-1.42-1.5H12Z" fill="#F0F3FA"/></svg>
